X:1
T:Carlton, 87.87 D
T:Carlton, 87.87 D
T:Joseph Barnby, 1869
T:Public Domain Courtesy of the Cyber Hymnal™
C:Joseph Barnby, 1869
Z:Public Domain
Z:Courtesy of the Cyber Hymnal™
%%score ( 1 2 ) ( 3 4 )
L:1/8
Q:1/4=110
M:4/4
K:F
V:1 treble 
V:2 treble 
V:3 bass 
V:4 bass 
V:1
 [Fc]2 [Fc]2 [Fd]2 [Ec]2 | [CA]2 F2 [EA]2 [EG]2 | F2 [CF]2 [FG]2 [FA]2 | [Fc]2 [FB]2 [EG]4 | %4
 [EG]2 [Gc]2 [Gd]2 [Gc]2 | [EG]2 [Gc]2 [Gd]2 [Gc]2 | G2 [Ge]2 [Gd]2 [Gc]2 | [GA]2 [F=B]2 [Ec]4 | %8
 [EG]2 [EG]2 F2 [FB]2 | [FA]2 [EG]2 [EG]2 [FA]2 | [Fc]2 [Fc]2 [FB]2 [_E_e]2 | [Fd]2 [Fc]2 [Fd]4 | %12
 [Fd]2 [Ge]2 [Ff]2 [Fc]2 | [FB]2 [FA]2 [FA]2 [FG]2 | [EG]2 [Ed]2 [Fc]2 F2 | A3 z G F4 |] %16
V:2
 x8 | x2 F2 x4 | F2 x6 | x8 | x8 | x8 | G2 x6 | x8 | x4 F2 x2 | x8 | x8 | x8 | x8 | x8 | x6 F2 | %15
 F2 (E2 F4) x |] %16
V:3
 [F,A,]2 [F,A,]2 [B,,B,]2 [C,G,]2 | F,2 [A,C]2 C2 [C,B,]2 | [D,A,]2 [_E,A,]2 [D,B,]2 [C,C]2 | %3
 [A,,_E]2 [B,,D]2 [C,G,]4 | [C,C]2 [E,C]2 [F,=B,]2 [E,C]2 | [C,C]2 [E,C]2 [F,=B,]2 [E,C]2 | %6
 G,2 [C,C]2 [D,=B,]2 (CE) | [F,E]2 [G,D]2 [C,C]4 | [C,C]2 [C,B,]2 [D,A,]2 [B,,D]2 | %9
 [C,C]2 [C,C]2 [F,B,]2 [F,A,]2 | [F,A,]2 [_E,A,]2 [D,B,]2 [G,B,]2 | [F,B,]2 [F,A,]2 B,4 | %12
 B,2 [G,B,]2 [A,C]2 [F,A,]2 | [D,B,]2 [C,C]2 [B,,D]2 [B,,D]2 | [B,C]2 [B,C]2 [A,C]2 [D,B,]2 | %15
 [C,C]2 [C,B,]2 [F,A,]4 x |] %16
V:4
 x8 | F,2 C2 x4 | x8 | x8 | x8 | x8 | G,2 x2 E,2 x2 | x8 | x8 | x8 | x8 | x4 B,4 | B,2 x6 | x8 | %14
 x8 | x9 |] %16

